!!!Genre:	Skotshne
!!!Mode:	Minor
!!!Edition:	2015
!!!Listening/dance:	dance
!!!Free rhythm?:	No
!!!Secondary Modes:	All minor
!!!One_Mode:	yes
**kern
*I"P1
*clefG2
*k[b-e-]
*g:
*M2/4
*>A
=1
8g
8r
8.ddL
16ccJk
=2
16ccLL
16ddJJ
4b-
8cc
=3
8.ddL
16ccJk
8b-L
8ccJ
=4
8ddL
8cc
8b-
8aJ
=5
8g
8r
8.ddL
16ccJk
=6
16ccLL
16ddJJ
4b-
8b-
=7
(16b-LL
16f)
(16f
16b-JJ)
(16b-LL
16a-X)
(16a-
16gJJ)
=8
2g
=9:|!|:
*>B
16anLL
16b-JJ
4cc
8b-
=10
8ccTL
16b-L
16aJJ
4g
=11
(16gLL
16f)
(16f
16b-JJ)
(16b-LL
16a)
(16a
16gJJ)
=12
8ccTL
16b-L
16aJJ
4b-
=13
16aLL
16b-JJ
4cc
8b-
=14
8ccTL
16b-L
16aJJ
4g
=15
(16gLL
16f)
(16f
16b-JJ)
(16b-LL
16a-X)
(16a-
16gJJ)
=16
2g
=17:|!
8gL
*>C
8f
8g
8aJ
=18
(4.b-
8f)
=19
(4.b-
8f)
=20
8.b-L
16fJk
8.b-L
16fJk
=21
8.b-L
16fJk
8.b-L
16fJk
=22
8ddL
8cc
8b-J
8r
=23
(16d'LL
16e-'
16d'
16c'JJ)
4B-
=24
8ee-L
8dd
8ccJ
8r
=25
16e-'LL
16f'
16e-'
16d'JJ
4c
=26
8ff
4ee-
[8dd
=27
8dd]
4cc
8b-
=28
8ccTL
8b-
8ee-
8ddJ
=29
8ccL
8b-
8a
8gJ
=30
8gL
16ccL
16ccJJ
16ccLL
16cc
16cc
16ccJJ
=31
8ccL
8b-
8a
8gJ
=32
8fL
16b-L
16b-JJ
16b-LL
16b-
16b-
16b-JJ
=33
8b-L
8a
8g
8fJ
=34!|:
4.g
8b-
=35
(16b-LL
16a)
(16a
16gJJ)
4cc
=36
4.g
8b-
=37
(16b-LL
16a)
(16a
16gJJ)
4g
=:|!
*-
